img/Phone.svg

<svg width="16" height="16" viewBox="0 0 16 16" fill="none" xmlns="http://www.w3.org/2000/svg">
<path fill-rule="evenodd" clip-rule="evenodd" d="M5.66683 1.94857C5.11454 1.94857 4.66683 2.39628 4.66683 2.94857V13.0527C4.66683 13.605 5.11454 14.0527 5.66683 14.0527H10.3335C10.8858 14.0527 11.3335 13.605 11.3335 13.0527V2.94857C11.3335 2.39628 10.8858 1.94857 10.3335 1.94857H10.2779L10.1155 2.3382C10.012 2.58661 9.76928 2.74842 9.50016 2.74842H6.50016C6.23105 2.74842 5.98832 2.58661 5.8848 2.3382L5.72242 1.94857H5.66683ZM3.3335 2.94857C3.3335 1.6599 4.37817 0.615234 5.66683 0.615234H10.3335C11.6222 0.615234 12.6668 1.6599 12.6668 2.94857V13.0527C12.6668 14.3414 11.6222 15.3861 10.3335 15.3861H5.66683C4.37816 15.3861 3.3335 14.3414 3.3335 13.0527V2.94857Z" fill="white"/>
</svg>

<svg width="16" height="16" fill="none" xmlns="http://www.w3.org/2000/svg"><path fill-rule="evenodd" clip-rule="evenodd" d="M5.667 1.949a1 1 0 00-1 1v10.104a1 1 0 001 1h4.667a1 1 0 001-1V2.949a1 1 0 00-1-1h-.056l-.162.39a.667.667 0 01-.616.41h-3a.667.667 0 01-.615-.41l-.163-.39h-.055zm-2.333 1A2.333 2.333 0 015.667.615h4.667a2.333 2.333 0 012.333 2.334v10.104a2.333 2.333 0 01-2.333 2.333H5.667a2.333 2.333 0 01-2.333-2.333V2.949z" fill="#fff"/></svg>
